!! 00047] TT[KA
!! NN
!!!OTL: Jiucai kaihua yi ganzi
!!!ARE: Asia, China, Fujian, Qingliu
!! Ethnic Group: Han
!! II, 586, 1)
!!!SCT: C0265
!!!YEM: Copyright 1995, estate of Helmut Schaffrath.
**kern
*ICvox
*Ivox
!! Mixed meters:  2/4; 3/4
*M3/4
*k[b-e-]
*B-:
{8gg
8ddd
8ccc
8ccc
=1
8ddd
16gg
16bb-
4ccc
8ccc
8r}
=2
{8ddd
8gg
8gg
8ccc
4bb-
=3
16ccc
16bb-
8gg
4ff
8ff
8r}
=4
*M2/4
{8gg
16ddd
16gg
8bb-
8bb-
=5
8ddd
8ff
4bb-}
=6
{8ddd
16gg
16bb-
8bb-
16gg
16ff
=7
8dd
8gg
4ff
8ff
8r}
==
!!!AGN: Shange, Kejia shange. Geming lishi minge
!! Einige Glissandi.
!!!ONB: ESAC (Essen Associative Code) Database: CHINA
!!!AMT: irregular
!!!AIN: vox
!!!EED: Helmut Schaffrath
!!!EEV: 1.0
*-
